versioned_docs/version-2.X/reference/data-models/aws/img/aws_ec2_instance_type.svg

<svg xmlns="http://www.w3.org/2000/svg" xmlns:xlink="http://www.w3.org/1999/xlink" width="421" height="1291" preserveAspectRatio="none" style="width:421px;height:1291px;background:#00000000"><a xlink:actuate="onRequest" xlink:href="#a" xlink:show="new" xlink:title="#resource" xlink:type="simple" target="_top"><rect id="a" width="256" height="275.836" x="7" y="7" fill="#3D176E" rx="2.5" ry="2.5" style="stroke:#000d19;stroke-width:1.5"/><circle cx="90.25" cy="26.895" r="11" fill="#E98DF7" style="stroke:#000d19;stroke-width:1"/><path d="M93.219 32.535q-.578.297-1.219.438-.64.156-1.344.156-2.5 0-3.828-1.64-1.312-1.657-1.312-4.782t1.312-4.781q1.328-1.656 3.828-1.656.703 0 1.344.156.656.156 1.219.453v2.719q-.625-.578-1.219-.844-.594-.281-1.219-.281-1.344 0-2.031 1.078-.688 1.062-.688 3.156 0 2.094.688 3.172.688 1.062 2.031 1.062.625 0 1.219-.265.594-.281 1.219-.86v2.72Z"/><text x="115.75" y="32.78" fill="#D9B8FF" font-family="Helvetica" font-size="17" textLength="71">resource</text><path d="M8 46.789h254" style="stroke:#000d19;stroke-width:1.5"/><text x="18" y="65.999" fill="#D9B8FF" font-family="sans-serif" font-size="11" font-weight="bold" textLength="12">id</text><text x="30" y="65.999" fill="#D9B8FF" font-family="sans-serif" font-size="11" textLength="41">: string</text><text x="18" y="88.804" fill="#D9B8FF" font-family="sans-serif" font-size="11" font-weight="bold" textLength="28">tags</text><text x="46" y="88.804" fill="#D9B8FF" font-family="sans-serif" font-size="11" textLength="145">: dictionary[string, string]</text><text x="18" y="111.609" fill="#D9B8FF" font-family="sans-serif" font-size="11" font-weight="bold" textLength="35">name</text><text x="53" y="111.609" fill="#D9B8FF" font-family="sans-serif" font-size="11" textLength="41">: string</text><text x="18" y="134.414" fill="#D9B8FF" font-family="sans-serif" font-size="11" font-weight="bold" textLength="35">ctime</text><text x="53" y="134.414" fill="#D9B8FF" font-family="sans-serif" font-size="11" textLength="58">: datetime</text><text x="18" y="157.218" fill="#D9B8FF" font-family="sans-serif" font-size="11" font-weight="bold" textLength="24">age</text><text x="42" y="157.218" fill="#D9B8FF" font-family="sans-serif" font-size="11" textLength="159">: trafo.duration_to_datetime</text><text x="18" y="180.023" fill="#D9B8FF" font-family="sans-serif" font-size="11" font-weight="bold" textLength="39">mtime</text><text x="57" y="180.023" fill="#D9B8FF" font-family="sans-serif" font-size="11" textLength="58">: datetime</text><text x="18" y="202.828" fill="#D9B8FF" font-family="sans-serif" font-size="11" font-weight="bold" textLength="75">last_update</text><text x="93" y="202.828" fill="#D9B8FF" font-family="sans-serif" font-size="11" textLength="159">: trafo.duration_to_datetime</text><text x="18" y="225.632" fill="#D9B8FF" font-family="sans-serif" font-size="11" font-weight="bold" textLength="36">atime</text><text x="54" y="225.632" fill="#D9B8FF" font-family="sans-serif" font-size="11" textLength="58">: datetime</text><text x="18" y="248.437" fill="#D9B8FF" font-family="sans-serif" font-size="11" font-weight="bold" textLength="74">last_access</text><text x="92" y="248.437" fill="#D9B8FF" font-family="sans-serif" font-size="11" textLength="159">: trafo.duration_to_datetime</text><text x="18" y="271.242" fill="#D9B8FF" font-family="sans-serif" font-size="11" font-weight="bold" textLength="27">kind</text><text x="45" y="271.242" fill="#D9B8FF" font-family="sans-serif" font-size="11" textLength="41">: string</text></a><a xlink:actuate="onRequest" xlink:href="#b" xlink:show="new" xlink:title="#quota" xlink:type="simple" target="_top"><rect id="b" width="134" height="116.203" x="68" y="565" fill="#3D176E" rx="2.5" ry="2.5" style="stroke:#000d19;stroke-width:1.5"/><circle cx="102.8" cy="584.894" r="11" fill="#E98DF7" style="stroke:#000d19;stroke-width:1"/><path d="M105.769 590.535q-.578.297-1.219.438-.64.156-1.344.156-2.5 0-3.828-1.64-1.312-1.657-1.312-4.782t1.312-4.781q1.328-1.657 3.828-1.657.703 0 1.344.157.656.156 1.219.453v2.719q-.625-.578-1.219-.844-.594-.281-1.219-.281-1.344 0-2.031 1.078-.688 1.062-.688 3.156 0 2.094.688 3.172.688 1.062 2.031 1.062.625 0 1.219-.265.594-.282 1.219-.86v2.72Z"/><text x="126.2" y="590.78" fill="#D9B8FF" font-family="Helvetica" font-size="17" textLength="48">quota</text><path d="M69 604.789h132" style="stroke:#000d19;stroke-width:1.5"/><text x="79" y="624" fill="#D9B8FF" font-family="sans-serif" font-size="11" font-weight="bold" textLength="37">quota</text><text x="116" y="624" fill="#D9B8FF" font-family="sans-serif" font-size="11" textLength="46">: double</text><text x="79" y="646.804" fill="#D9B8FF" font-family="sans-serif" font-size="11" font-weight="bold" textLength="39">usage</text><text x="118" y="646.804" fill="#D9B8FF" font-family="sans-serif" font-size="11" textLength="46">: double</text><text x="79" y="669.609" fill="#D9B8FF" font-family="sans-serif" font-size="11" font-weight="bold" textLength="71">quota_type</text><text x="150" y="669.609" fill="#D9B8FF" font-family="sans-serif" font-size="11" textLength="41">: string</text></a><a xlink:actuate="onRequest" xlink:href="#c" xlink:show="new" xlink:title="#aws_resource" xlink:type="simple" target="_top"><rect id="c" width="155" height="70.594" x="259.5" y="1008.5" fill="#3D176E" rx="2.5" ry="2.5" style="stroke:#000d19;stroke-width:1.5"/><circle cx="274.5" cy="1028.395" r="11" fill="#E98DF7" style="stroke:#000d19;stroke-width:1"/><path d="M277.469 1034.035q-.578.297-1.219.438-.64.156-1.344.156-2.5 0-3.828-1.64-1.312-1.657-1.312-4.782t1.312-4.781q1.328-1.657 3.828-1.657.703 0 1.344.157.656.156 1.219.453v2.719q-.625-.578-1.219-.844-.594-.281-1.219-.281-1.344 0-2.031 1.078-.688 1.062-.688 3.156 0 2.094.688 3.172.688 1.062 2.031 1.062.625 0 1.219-.265.594-.281 1.219-.86v2.72Z"/><text x="293.5" y="1034.28" fill="#D9B8FF" font-family="Helvetica" font-size="17" textLength="113">aws_resource</text><path d="M260.5 1048.289h153" style="stroke:#000d19;stroke-width:1.5"/><text x="270.5" y="1067.499" fill="#D9B8FF" font-family="sans-serif" font-size="11" font-weight="bold" textLength="21">arn</text><text x="291.5" y="1067.499" fill="#D9B8FF" font-family="sans-serif" font-size="11" textLength="41">: string</text></a><a xlink:actuate="onRequest" xlink:href="#d" xlink:show="new" xlink:title="#instance_type" xlink:type="simple" target="_top"><rect id="d" width="179" height="161.813" x="45.5" y="963" fill="#3D176E" rx="2.5" ry="2.5" style="stroke:#000d19;stroke-width:1.5"/><circle cx="69.95" cy="982.894" r="11" fill="#E98DF7" style="stroke:#000d19;stroke-width:1"/><path d="M72.919 988.535q-.578.297-1.219.438-.64.156-1.344.156-2.5 0-3.828-1.64-1.312-1.657-1.312-4.782t1.312-4.781q1.328-1.657 3.828-1.657.703 0 1.344.157.656.156 1.219.453v2.719q-.625-.578-1.219-.844-.594-.281-1.219-.281-1.343 0-2.031 1.078-.688 1.062-.688 3.156 0 2.094.688 3.172.688 1.062 2.031 1.062.625 0 1.219-.265.594-.282 1.219-.86v2.72Z"/><text x="91.05" y="988.78" fill="#D9B8FF" font-family="Helvetica" font-size="17" textLength="116">instance_type</text><path d="M46.5 1002.789h177" style="stroke:#000d19;stroke-width:1.5"/><text x="56.5" y="1022" fill="#D9B8FF" font-family="sans-serif" font-size="11" font-weight="bold" textLength="89">instance_type</text><text x="145.5" y="1022" fill="#D9B8FF" font-family="sans-serif" font-size="11" textLength="41">: string</text><text x="56.5" y="1044.804" fill="#D9B8FF" font-family="sans-serif" font-size="11" font-weight="bold" textLength="96">instance_cores</text><text x="152.5" y="1044.804" fill="#D9B8FF" font-family="sans-serif" font-size="11" textLength="46">: double</text><text x="56.5" y="1067.609" fill="#D9B8FF" font-family="sans-serif" font-size="11" font-weight="bold" textLength="111">instance_memory</text><text x="167.5" y="1067.609" fill="#D9B8FF" font-family="sans-serif" font-size="11" textLength="46">: double</text><text x="56.5" y="1090.414" fill="#D9B8FF" font-family="sans-serif" font-size="11" font-weight="bold" textLength="100">ondemand_cost</text><text x="156.5" y="1090.414" fill="#D9B8FF" font-family="sans-serif" font-size="11" textLength="46">: double</text><text x="56.5" y="1113.218" fill="#D9B8FF" font-family="sans-serif" font-size="11" font-weight="bold" textLength="80">reservations</text><text x="136.5" y="1113.218" fill="#D9B8FF" font-family="sans-serif" font-size="11" textLength="36">: int64</text></a><a xlink:actuate="onRequest" xlink:href="#e" xlink:show="new" xlink:title="#aws_ec2_instance_type" xlink:type="simple" target="_top"><rect id="e" width="238" height="39.789" x="149" y="1246" fill="#3D176E" rx="2.5" ry="2.5" style="stroke:#000d19;stroke-width:1.5"/><circle cx="164" cy="1265.895" r="11" fill="#E98DF7" style="stroke:#000d19;stroke-width:1"/><path d="M166.969 1271.535q-.578.297-1.219.438-.64.156-1.344.156-2.5 0-3.828-1.64-1.312-1.657-1.312-4.782t1.312-4.781q1.328-1.656 3.828-1.656.703 0 1.344.156.656.156 1.219.453v2.719q-.625-.578-1.219-.844-.594-.281-1.219-.281-1.344 0-2.031 1.078-.688 1.062-.688 3.156 0 2.094.688 3.172.688 1.062 2.031 1.062.625 0 1.219-.265.594-.281 1.219-.86v2.72Z"/><text x="183" y="1271.78" fill="#D9B8FF" font-family="Helvetica" font-size="17" textLength="196">aws_ec2_instance_type</text></a><a xlink:actuate="onRequest" xlink:href="#f" xlink:show="new" xlink:title="#type" xlink:type="simple" target="_top"><rect id="f" width="79" height="39.789" x="95.5" y="802" fill="#3D176E" rx="2.5" ry="2.5" style="stroke:#000d19;stroke-width:1.5"/><circle cx="110.5" cy="821.894" r="11" fill="#E98DF7" style="stroke:#000d19;stroke-width:1"/><path d="M113.469 827.535q-.578.297-1.219.438-.64.156-1.344.156-2.5 0-3.828-1.64-1.312-1.657-1.312-4.782t1.312-4.781q1.328-1.657 3.828-1.657.703 0 1.344.157.656.156 1.219.453v2.719q-.625-.578-1.219-.844-.594-.281-1.219-.281-1.344 0-2.031 1.078-.688 1.062-.688 3.156 0 2.094.688 3.172.688 1.062 2.031 1.062.625 0 1.219-.265.594-.282 1.219-.86v2.72Z"/><text x="129.5" y="827.78" fill="#D9B8FF" font-family="Helvetica" font-size="17" textLength="37">type</text></a><a xlink:actuate="onRequest" xlink:href="#g" xlink:show="new" xlink:title="#phantom_resource" xlink:type="simple" target="_top"><rect id="g" width="198" height="39.789" x="36" y="404" fill="#3D176E" rx="2.5" ry="2.5" style="stroke:#000d19;stroke-width:1.5"/><circle cx="51" cy="423.894" r="11" fill="#E98DF7" style="stroke:#000d19;stroke-width:1"/><path d="M53.969 429.535q-.578.297-1.219.438-.64.156-1.344.156-2.5 0-3.828-1.64-1.312-1.657-1.312-4.782t1.312-4.781q1.328-1.656 3.828-1.656.703 0 1.344.156.656.156 1.219.453v2.719q-.625-.579-1.219-.844-.594-.281-1.219-.281-1.343 0-2.031 1.078-.688 1.062-.688 3.156 0 2.094.688 3.172.688 1.062 2.031 1.062.625 0 1.219-.265.594-.281 1.219-.86v2.72Z"/><text x="70" y="429.78" fill="#D9B8FF" font-family="Helvetica" font-size="17" textLength="156">phantom_resource</text></a><path fill="none" d="M135 464.28v100.58m-7-100.61 7-20 7 20h-14zm7 398.13V962.9m-7-100.76 7-20 7 20h-14zm192.07 236.84a704704.9 704704.9 0 0 1-46.1 146.97m39.43-149.1 12.67-16.99.69 21.18-13.36-4.19zm-119.52 45.55c23.51 38.89 48.31 79.91 62.43 103.27m-68.56-99.89-4.36-20.73 16.34 13.49-11.98 7.24zM135 701.27v100.44m-7-100.46 7-20 7 20h-14zm7-397.77v100.27m-7-100.47 7-20 7 20h-14z" style="stroke:#ffaf37;stroke-width:2"/></svg>

<svg xmlns="http://www.w3.org/2000/svg" xmlns:xlink="http://www.w3.org/1999/xlink" width="421" height="1291" preserveAspectRatio="none" style="width:421px;height:1291px;background:#00000000"><a xlink:actuate="onRequest" xlink:href="#a" xlink:show="new" xlink:title="#resource" xlink:type="simple" target="_top"><rect id="a" width="256" height="275.836" x="7" y="7" fill="#3D176E" rx="2.5" ry="2.5" style="stroke:#000d19;stroke-width:1.5"/><circle cx="90.25" cy="26.895" r="11" fill="#E98DF7" style="stroke:#000d19;stroke-width:1"/><path d="M93.219 32.535q-.578.297-1.219.438-.64.156-1.344.156-2.5 0-3.828-1.64-1.312-1.657-1.312-4.782t1.312-4.781q1.328-1.656 3.828-1.656.703 0 1.344.156.656.156 1.219.453v2.719q-.625-.578-1.219-.844-.594-.281-1.219-.281-1.344 0-2.031 1.078-.688 1.062-.688 3.156 0 2.094.688 3.172.688 1.062 2.031 1.062.625 0 1.219-.265.594-.281 1.219-.86v2.72Z"/><text x="115.75" y="32.78" fill="#D9B8FF" font-family="Helvetica" font-size="17" textLength="71">resource</text><path d="M8 46.789h254" style="stroke:#000d19;stroke-width:1.5"/><text x="18" y="65.999" fill="#D9B8FF" font-family="sans-serif" font-size="11" font-weight="bold" textLength="12">id</text><text x="30" y="65.999" fill="#D9B8FF" font-family="sans-serif" font-size="11" textLength="41">: string</text><text x="18" y="88.804" fill="#D9B8FF" font-family="sans-serif" font-size="11" font-weight="bold" textLength="28">tags</text><text x="46" y="88.804" fill="#D9B8FF" font-family="sans-serif" font-size="11" textLength="145">: dictionary[string, string]</text><text x="18" y="111.609" fill="#D9B8FF" font-family="sans-serif" font-size="11" font-weight="bold" textLength="35">name</text><text x="53" y="111.609" fill="#D9B8FF" font-family="sans-serif" font-size="11" textLength="41">: string</text><text x="18" y="134.414" fill="#D9B8FF" font-family="sans-serif" font-size="11" font-weight="bold" textLength="35">ctime</text><text x="53" y="134.414" fill="#D9B8FF" font-family="sans-serif" font-size="11" textLength="58">: datetime</text><text x="18" y="157.218" fill="#D9B8FF" font-family="sans-serif" font-size="11" font-weight="bold" textLength="24">age</text><text x="42" y="157.218" fill="#D9B8FF" font-family="sans-serif" font-size="11" textLength="159">: trafo.duration_to_datetime</text><text x="18" y="180.023" fill="#D9B8FF" font-family="sans-serif" font-size="11" font-weight="bold" textLength="39">mtime</text><text x="57" y="180.023" fill="#D9B8FF" font-family="sans-serif" font-size="11" textLength="58">: datetime</text><text x="18" y="202.828" fill="#D9B8FF" font-family="sans-serif" font-size="11" font-weight="bold" textLength="75">last_update</text><text x="93" y="202.828" fill="#D9B8FF" font-family="sans-serif" font-size="11" textLength="159">: trafo.duration_to_datetime</text><text x="18" y="225.632" fill="#D9B8FF" font-family="sans-serif" font-size="11" font-weight="bold" textLength="36">atime</text><text x="54" y="225.632" fill="#D9B8FF" font-family="sans-serif" font-size="11" textLength="58">: datetime</text><text x="18" y="248.437" fill="#D9B8FF" font-family="sans-serif" font-size="11" font-weight="bold" textLength="74">last_access</text><text x="92" y="248.437" fill="#D9B8FF" font-family="sans-serif" font-size="11" textLength="159">: trafo.duration_to_datetime</text><text x="18" y="271.242" fill="#D9B8FF" font-family="sans-serif" font-size="11" font-weight="bold" textLength="27">kind</text><text x="45" y="271.242" fill="#D9B8FF" font-family="sans-serif" font-size="11" textLength="41">: string</text></a><a xlink:actuate="onRequest" xlink:href="#b" xlink:show="new" xlink:title="#quota" xlink:type="simple" target="_top"><rect id="b" width="134" height="116.203" x="68" y="565" fill="#3D176E" rx="2.5" ry="2.5" style="stroke:#000d19;stroke-width:1.5"/><circle cx="102.8" cy="584.894" r="11" fill="#E98DF7" style="stroke:#000d19;stroke-width:1"/><path d="M105.769 590.535q-.578.297-1.219.438-.64.156-1.344.156-2.5 0-3.828-1.64-1.312-1.657-1.312-4.782t1.312-4.781q1.328-1.657 3.828-1.657.703 0 1.344.157.656.156 1.219.453v2.719q-.625-.578-1.219-.844-.594-.281-1.219-.281-1.344 0-2.031 1.078-.688 1.062-.688 3.156 0 2.094.688 3.172.688 1.062 2.031 1.062.625 0 1.219-.265.594-.282 1.219-.86v2.72Z"/><text x="126.2" y="590.78" fill="#D9B8FF" font-family="Helvetica" font-size="17" textLength="48">quota</text><path d="M69 604.789h132" style="stroke:#000d19;stroke-width:1.5"/><text x="79" y="624" fill="#D9B8FF" font-family="sans-serif" font-size="11" font-weight="bold" textLength="37">quota</text><text x="116" y="624" fill="#D9B8FF" font-family="sans-serif" font-size="11" textLength="46">: double</text><text x="79" y="646.804" fill="#D9B8FF" font-family="sans-serif" font-size="11" font-weight="bold" textLength="39">usage</text><text x="118" y="646.804" fill="#D9B8FF" font-family="sans-serif" font-size="11" textLength="46">: double</text><text x="79" y="669.609" fill="#D9B8FF" font-family="sans-serif" font-size="11" font-weight="bold" textLength="71">quota_type</text><text x="150" y="669.609" fill="#D9B8FF" font-family="sans-serif" font-size="11" textLength="41">: string</text></a><a xlink:actuate="onRequest" xlink:href="#c" xlink:show="new" xlink:title="#aws_resource" xlink:type="simple" target="_top"><rect id="c" width="155" height="70.594" x="259.5" y="1008.5" fill="#3D176E" rx="2.5" ry="2.5" style="stroke:#000d19;stroke-width:1.5"/><circle cx="274.5" cy="1028.395" r="11" fill="#E98DF7" style="stroke:#000d19;stroke-width:1"/><path d="M277.469 1034.035q-.578.297-1.219.438-.64.156-1.344.156-2.5 0-3.828-1.64-1.312-1.657-1.312-4.782t1.312-4.781q1.328-1.657 3.828-1.657.703 0 1.344.157.656.156 1.219.453v2.719q-.625-.578-1.219-.844-.594-.281-1.219-.281-1.344 0-2.031 1.078-.688 1.062-.688 3.156 0 2.094.688 3.172.688 1.062 2.031 1.062.625 0 1.219-.265.594-.281 1.219-.86v2.72Z"/><text x="293.5" y="1034.28" fill="#D9B8FF" font-family="Helvetica" font-size="17" textLength="113">aws_resource</text><path d="M260.5 1048.289h153" style="stroke:#000d19;stroke-width:1.5"/><text x="270.5" y="1067.499" fill="#D9B8FF" font-family="sans-serif" font-size="11" font-weight="bold" textLength="21">arn</text><text x="291.5" y="1067.499" fill="#D9B8FF" font-family="sans-serif" font-size="11" textLength="41">: string</text></a><a xlink:actuate="onRequest" xlink:href="#d" xlink:show="new" xlink:title="#instance_type" xlink:type="simple" target="_top"><rect id="d" width="179" height="161.813" x="45.5" y="963" fill="#3D176E" rx="2.5" ry="2.5" style="stroke:#000d19;stroke-width:1.5"/><circle cx="69.95" cy="982.894" r="11" fill="#E98DF7" style="stroke:#000d19;stroke-width:1"/><path d="M72.919 988.535q-.578.297-1.219.438-.64.156-1.344.156-2.5 0-3.828-1.64-1.312-1.657-1.312-4.782t1.312-4.781q1.328-1.657 3.828-1.657.703 0 1.344.157.656.156 1.219.453v2.719q-.625-.578-1.219-.844-.594-.281-1.219-.281-1.343 0-2.031 1.078-.688 1.062-.688 3.156 0 2.094.688 3.172.688 1.062 2.031 1.062.625 0 1.219-.265.594-.282 1.219-.86v2.72Z"/><text x="91.05" y="988.78" fill="#D9B8FF" font-family="Helvetica" font-size="17" textLength="116">instance_type</text><path d="M46.5 1002.789h177" style="stroke:#000d19;stroke-width:1.5"/><text x="56.5" y="1022" fill="#D9B8FF" font-family="sans-serif" font-size="11" font-weight="bold" textLength="89">instance_type</text><text x="145.5" y="1022" fill="#D9B8FF" font-family="sans-serif" font-size="11" textLength="41">: string</text><text x="56.5" y="1044.804" fill="#D9B8FF" font-family="sans-serif" font-size="11" font-weight="bold" textLength="96">instance_cores</text><text x="152.5" y="1044.804" fill="#D9B8FF" font-family="sans-serif" font-size="11" textLength="46">: double</text><text x="56.5" y="1067.609" fill="#D9B8FF" font-family="sans-serif" font-size="11" font-weight="bold" textLength="111">instance_memory</text><text x="167.5" y="1067.609" fill="#D9B8FF" font-family="sans-serif" font-size="11" textLength="46">: double</text><text x="56.5" y="1090.414" fill="#D9B8FF" font-family="sans-serif" font-size="11" font-weight="bold" textLength="100">ondemand_cost</text><text x="156.5" y="1090.414" fill="#D9B8FF" font-family="sans-serif" font-size="11" textLength="46">: double</text><text x="56.5" y="1113.218" fill="#D9B8FF" font-family="sans-serif" font-size="11" font-weight="bold" textLength="80">reservations</text><text x="136.5" y="1113.218" fill="#D9B8FF" font-family="sans-serif" font-size="11" textLength="36">: int64</text></a><a xlink:actuate="onRequest" xlink:href="#e" xlink:show="new" xlink:title="#aws_ec2_instance_type" xlink:type="simple" target="_top"><rect id="e" width="238" height="39.789" x="149" y="1246" fill="#3D176E" rx="2.5" ry="2.5" style="stroke:#000d19;stroke-width:1.5"/><circle cx="164" cy="1265.895" r="11" fill="#E98DF7" style="stroke:#000d19;stroke-width:1"/><path d="M166.969 1271.535q-.578.297-1.219.438-.64.156-1.344.156-2.5 0-3.828-1.64-1.312-1.657-1.312-4.782t1.312-4.781q1.328-1.656 3.828-1.656.703 0 1.344.156.656.156 1.219.453v2.719q-.625-.578-1.219-.844-.594-.281-1.219-.281-1.344 0-2.031 1.078-.688 1.062-.688 3.156 0 2.094.688 3.172.688 1.062 2.031 1.062.625 0 1.219-.265.594-.281 1.219-.86v2.72Z"/><text x="183" y="1271.78" fill="#D9B8FF" font-family="Helvetica" font-size="17" textLength="196">aws_ec2_instance_type</text></a><a xlink:actuate="onRequest" xlink:href="#f" xlink:show="new" xlink:title="#type" xlink:type="simple" target="_top"><rect id="f" width="79" height="39.789" x="95.5" y="802" fill="#3D176E" rx="2.5" ry="2.5" style="stroke:#000d19;stroke-width:1.5"/><circle cx="110.5" cy="821.894" r="11" fill="#E98DF7" style="stroke:#000d19;stroke-width:1"/><path d="M113.469 827.535q-.578.297-1.219.438-.64.156-1.344.156-2.5 0-3.828-1.64-1.312-1.657-1.312-4.782t1.312-4.781q1.328-1.657 3.828-1.657.703 0 1.344.157.656.156 1.219.453v2.719q-.625-.578-1.219-.844-.594-.281-1.219-.281-1.344 0-2.031 1.078-.688 1.062-.688 3.156 0 2.094.688 3.172.688 1.062 2.031 1.062.625 0 1.219-.265.594-.282 1.219-.86v2.72Z"/><text x="129.5" y="827.78" fill="#D9B8FF" font-family="Helvetica" font-size="17" textLength="37">type</text></a><a xlink:actuate="onRequest" xlink:href="#g" xlink:show="new" xlink:title="#phantom_resource" xlink:type="simple" target="_top"><rect id="g" width="198" height="39.789" x="36" y="404" fill="#3D176E" rx="2.5" ry="2.5" style="stroke:#000d19;stroke-width:1.5"/><circle cx="51" cy="423.894" r="11" fill="#E98DF7" style="stroke:#000d19;stroke-width:1"/><path d="M53.969 429.535q-.578.297-1.219.438-.64.156-1.344.156-2.5 0-3.828-1.64-1.312-1.657-1.312-4.782t1.312-4.781q1.328-1.656 3.828-1.656.703 0 1.344.156.656.156 1.219.453v2.719q-.625-.579-1.219-.844-.594-.281-1.219-.281-1.343 0-2.031 1.078-.688 1.062-.688 3.156 0 2.094.688 3.172.688 1.062 2.031 1.062.625 0 1.219-.265.594-.281 1.219-.86v2.72Z"/><text x="70" y="429.78" fill="#D9B8FF" font-family="Helvetica" font-size="17" textLength="156">phantom_resource</text></a><path fill="none" d="M135 464.28v100.58M128 464.25l7-20 7 20h-14zM135 862.38V962.9M128 862.14l7-20 7 20h-14zM320.07 1098.98a704704.9 704704.9 0 0 1-46.1 146.97M313.4 1096.85l12.67-16.99.69 21.18-13.36-4.19zM193.88 1142.4c23.51 38.89 48.31 79.91 62.43 103.27M187.75 1145.78l-4.36-20.73 16.34 13.49-11.98 7.24zM135 701.27v100.44M128 701.25l7-20 7 20h-14zM135 303.48v100.27M128 303.28l7-20 7 20h-14z" style="stroke:#ffaf37;stroke-width:2"/></svg>
